img/play.svg

<svg width="60" height="60" viewBox="0 0 60 60" fill="none" xmlns="http://www.w3.org/2000/svg">
<rect width="60" height="60" rx="30" fill="#8AC263"/>
<rect x="2" y="2" width="56" height="56" rx="28" fill="white"/>
<path d="M25.0793 41C24.7339 40.9993 24.3946 40.9075 24.0948 40.7335C23.4197 40.3455 23 39.5922 23 38.7745V22.2256C23 21.4056 23.4197 20.6546 24.0948 20.2666C24.4017 20.0877 24.7504 19.9956 25.1044 20.0002C25.4584 20.0047 25.8047 20.1056 26.1071 20.2923L40.0506 28.7584C40.3412 28.9433 40.5808 29.1999 40.7468 29.5043C40.9129 29.8088 41 30.151 41 30.4989C41 30.8468 40.9129 31.189 40.7468 31.4935C40.5808 31.7979 40.3412 32.0546 40.0506 32.2394L26.1049 40.7078C25.7954 40.8976 25.4409 40.9986 25.0793 41Z" fill="#FF4E00"/>
</svg>

<svg width="60" height="60" fill="none" xmlns="http://www.w3.org/2000/svg"><rect width="60" height="60" rx="30" fill="#8AC263"/><rect x="2" y="2" width="56" height="56" rx="28" fill="#fff"/><path d="M25.08 41c-.346 0-.685-.093-.985-.267-.675-.387-1.095-1.14-1.095-1.958v-16.55c0-.82.42-1.57 1.095-1.958a1.954 1.954 0 0 1 2.012.025l13.944 8.466c.29.185.53.442.696.746a2.077 2.077 0 0 1 0 1.99 2.042 2.042 0 0 1-.696.745l-13.946 8.469c-.31.19-.664.29-1.026.292Z" fill="#FF4E00"/></svg>
